apps/16/postscript-viewer.svg

<?xml version="1.0" encoding="UTF-8" standalone="no"?>
<svg
   xmlns:dc="http://purl.org/dc/elements/1.1/"
   xmlns:cc="http://creativecommons.org/ns#"
   xmlns:rdf="http://www.w3.org/1999/02/22-rdf-syntax-ns#"
   xmlns:svg="http://www.w3.org/2000/svg"
   xmlns="http://www.w3.org/2000/svg"
   xmlns:xlink="http://www.w3.org/1999/xlink"
   version="1.1"
   width="16"
   height="16"
   id="svg6839">
  <defs
     id="defs6841">
    <linearGradient
       x1="23.99999"
       y1="4.999989"
       x2="23.99999"
       y2="43"
       id="linearGradient4202"
       xlink:href="#linearGradient3924-4"
       gradientUnits="userSpaceOnUse"
       gradientTransform="matrix(0.2972973,0,0,0.2972973,0.86486955,0.86486463)" />
    <linearGradient
       id="linearGradient3924-4">
      <stop
         id="stop3926-0-6"
         style="stop-color:#ffffff;stop-opacity:1"
         offset="0" />
      <stop
         id="stop3928-6"
         style="stop-color:#ffffff;stop-opacity:0.23529412"
         offset="0.06316455" />
      <stop
         id="stop3930-2-7"
         style="stop-color:#ffffff;stop-opacity:0.15686275"
         offset="0.95056331" />
      <stop
         id="stop3932-9"
         style="stop-color:#ffffff;stop-opacity:0.39215687"
         offset="1" />
    </linearGradient>
    <linearGradient
       x1="167.98311"
       y1="8.50811"
       x2="167.98311"
       y2="54.780239"
       id="linearGradient5075-1-8"
       xlink:href="#linearGradient5803-2-7"
       gradientUnits="userSpaceOnUse"
       gradientTransform="matrix(0.22222222,0,0,0.22222222,-12.00001,0.89800163)" />
    <linearGradient
       id="linearGradient5803-2-7">
      <stop
         id="stop5805-3-6"
         style="stop-color:#fffdf3;stop-opacity:1"
         offset="0" />
      <stop
         id="stop5807-0-0"
         style="stop-color:#fbebeb;stop-opacity:1"
         offset="1" />
    </linearGradient>
    <linearGradient
       id="linearGradient3242">
      <stop
         id="stop3244"
         style="stop-color:#f89b7e;stop-opacity:1"
         offset="0" />
      <stop
         id="stop3246"
         style="stop-color:#e35d4f;stop-opacity:1"
         offset="0.26238" />
      <stop
         id="stop3248"
         style="stop-color:#c6262e;stop-opacity:1"
         offset="0.66093999" />
      <stop
         id="stop3250"
         style="stop-color:#690b2c;stop-opacity:1"
         offset="1" />
    </linearGradient>
    <radialGradient
       cx="8.276144"
       cy="9.9941158"
       r="12.671875"
       fx="8.276144"
       fy="9.9941158"
       id="radialGradient6837"
       xlink:href="#linearGradient3242"
       gradientUnits="userSpaceOnUse"
       gradientTransform="matrix(0,2.2225861,-2.7286255,0,35.2943,-20.154259)" />
  </defs>
  <metadata
     id="metadata6844">
    <rdf:RDF>
      <cc:Work
         rdf:about="">
        <dc:format>image/svg+xml</dc:format>
        <dc:type
           rdf:resource="http://purl.org/dc/dcmitype/StillImage" />
        <dc:title />
      </cc:Work>
    </rdf:RDF>
  </metadata>
  <g
     id="layer1">
    <rect
       width="12.999999"
       height="12.999999"
       rx="1"
       ry="1"
       x="1.5"
       y="1.4999971"
       id="rect5505-1"
       style="color:#000000;fill:url(#radialGradient6837);fill-opacity:1;fill-rule:nonzero;stroke:none;stroke-width:0.99999994;marker:none;visibility:visible;display:inline;overflow:visible;enable-background:accumulate" />
    <path
       d="m 9.2187496,2.9999975 c -4.09018,3.509597 -6.44156,4.007873 -7.21875,4.0625 l 0,1.25 c 0.58663,-0.08191 2.0546,-0.360154 3.625,-1.34375 2.01368,-1.26124 4.4375004,-3.65625 4.4375004,-3.65625 -0.6414904,1.258316 -0.8524704,5.530548 -0.8750004,11.1874995 l 4.3125004,0 c 0.1782,0 0.32415,-0.07521 0.46875,-0.15625 -0.76658,-1.611273 -1.277,-3.910266 -1.65625,-5.9687495 -0.32764,-2.486232 0.16439,-4.674653 0.34375,-5.375 l -3.4375004,0 z m -7.21875,6.125 0,1.3750005 c 1.5847,0 3.9442,1.786104 5.28125,3.999999 l 1.15625,0 c -1.06154,-2.220937 -5.23363,-5.3749995 -6.4375,-5.3749995 z"
       id="path6711-8-9"
       style="opacity:0.2;color:#000000;fill:#661215;fill-opacity:1;fill-rule:evenodd;stroke:none;stroke-width:1;marker:none;visibility:visible;display:inline;overflow:visible;enable-background:accumulate" />
    <path
       d="m 9.2039496,1.9999975 c -4.09018,3.509597 -6.42676,4.004991 -7.20395,4.059618 l 0,1.26124 c 0.58663,-0.08191 2.06118,-0.366325 3.63158,-1.349921 2.01368,-1.26124 4.4210504,-3.655627 4.4210504,-3.655627 -0.6602404,1.2951 -0.8525004,5.760981 -0.8652604,11.6664755 l 4.2205204,0 C 13.73834,13.981783 14,13.72052 14,13.390576 13.21757,11.776846 12.70624,9.4438475 12.32237,7.3602695 c -0.32764,-2.486232 0.15616,-4.659925 0.33552,-5.360272 l -3.4539404,0 z m -7.20395,6.11501 0,1.396895 c 1.69805,0 4.30855,2.0376275 5.57139,4.4698805 l 1.06073,0 c -0.59338,-2.211156 -5.33664,-5.8667755 -6.63212,-5.8667755 z"
       id="path6711-8"
       style="color:#000000;fill:url(#linearGradient5075-1-8);fill-opacity:1;fill-rule:nonzero;stroke:none;stroke-width:1;marker:none;visibility:visible;display:inline;overflow:visible;enable-background:accumulate" />
    <path
       d="m 12.84375,2.0312475 c -1.60765,0.979406 -6.8697004,3.940406 -10.8437504,3.5625 l 0,2.71875 c 0,0 8.8367504,1.297463 12.0000004,-1.3125 l 0,-4.34375 c 0,-0.349365 -0.2751,-0.625 -0.625,-0.625 l -0.53125,0 z M 14,8.1562475 c -1.59033,1.583945 -3.22481,3.6770755 -4.3125004,5.8437495 l 1.2812504,0 C 11.84918,12.512634 12.98878,10.882572 14,9.8749975 l 0,-1.71875 z"
       id="path6713-1"
       style="opacity:0.05;fill:#000000;fill-opacity:1;fill-rule:evenodd;stroke:none" />
    <rect
       width="11"
       height="11"
       x="2.5"
       y="2.4999971"
       id="rect6741-0-3"
       style="opacity:0.5;fill:none;stroke:url(#linearGradient4202);stroke-width:1;stroke-linecap:round;stroke-linejoin:round;stroke-miterlimit:4;stroke-opacity:1;stroke-dasharray:none;stroke-dashoffset:0" />
    <rect
       width="12.999999"
       height="12.999999"
       rx="1"
       ry="1"
       x="1.5"
       y="1.500001"
       id="rect5505-1-9"
       style="opacity:0.35;color:#000000;fill:none;stroke:#410000;stroke-width:1;stroke-linecap:round;stroke-linejoin:round;stroke-miterlimit:4;stroke-opacity:1;stroke-dasharray:none;stroke-dashoffset:0;marker:none;visibility:visible;display:inline;overflow:visible;enable-background:accumulate" />
  </g>
</svg>

<svg xmlns="http://www.w3.org/2000/svg" xmlns:xlink="http://www.w3.org/1999/xlink" viewBox="0 0 16 16"><defs><linearGradient x1="24" y1="5" x2="24" y2="43" id="f" xlink:href="#a" gradientUnits="userSpaceOnUse" gradientTransform="translate(.865 .865) scale(.2973)"/><linearGradient id="a"><stop offset="0" stop-color="#fff"/><stop offset=".063" stop-color="#fff" stop-opacity=".235"/><stop offset=".951" stop-color="#fff" stop-opacity=".157"/><stop offset="1" stop-color="#fff" stop-opacity=".392"/></linearGradient><linearGradient x1="167.983" y1="8.508" x2="167.983" y2="54.78" id="e" xlink:href="#b" gradientUnits="userSpaceOnUse" gradientTransform="translate(-12 .898) scale(.22222)"/><linearGradient id="b"><stop offset="0" stop-color="#fffdf3"/><stop offset="1" stop-color="#fbebeb"/></linearGradient><linearGradient id="c"><stop offset="0" stop-color="#f89b7e"/><stop offset=".262" stop-color="#e35d4f"/><stop offset=".661" stop-color="#c6262e"/><stop offset="1" stop-color="#690b2c"/></linearGradient><radialGradient cx="8.276" cy="9.994" r="12.672" fx="8.276" fy="9.994" id="d" xlink:href="#c" gradientUnits="userSpaceOnUse" gradientTransform="scale(2.72863 2.2226) rotate(90 11 1.933)"/></defs><rect width="13" height="13" rx="1" ry="1" x="1.5" y="1.5" color="#000" fill="url(#d)" overflow="visible"/><path d="M9.22 3C5.13 6.51 2.776 7.008 2 7.062v1.25A9.43 9.43 0 0 0 5.625 6.97c2.015-1.263 4.438-3.66 4.438-3.66-.642 1.26-.853 5.53-.876 11.188H13.5c.178 0 .324-.075.47-.156-.768-1.612-1.278-3.91-1.658-5.97-.327-2.485.165-4.674.344-5.374H9.22zM2 9.125V10.5c1.585 0 3.944 1.786 5.28 4h1.157C7.377 12.28 3.204 9.125 2 9.125z" opacity=".2" color="#000" fill="#661215" fill-rule="evenodd" overflow="visible"/><path d="M9.204 2C5.114 5.51 2.777 6.005 2 6.06v1.26a9.494 9.494 0 0 0 3.632-1.35c2.013-1.26 4.42-3.655 4.42-3.655-.66 1.295-.852 5.76-.865 11.667h4.22c.33 0 .593-.26.593-.59-.782-1.615-1.294-3.948-1.678-6.032-.327-2.486.157-4.66.336-5.36H9.204zM2 8.115v1.397c1.698 0 4.31 2.038 5.57 4.47h1.062C8.04 11.772 3.295 8.115 2 8.115z" color="#000" fill="url(#e)" overflow="visible"/><path d="M12.844 2.03C11.236 3.01 5.974 5.973 2 5.595v2.718S10.837 9.61 14 7V2.656a.62.62 0 0 0-.625-.625h-.53zM14 8.157C12.41 9.74 10.775 11.833 9.687 14h1.282c.88-1.487 2.02-3.117 3.03-4.125v-1.72z" opacity=".05" fill-rule="evenodd"/><path opacity=".5" fill="none" stroke="url(#f)" stroke-linecap="round" stroke-linejoin="round" d="M2.5 2.5h11v11h-11z"/><rect width="13" height="13" rx="1" ry="1" x="1.5" y="1.5" opacity=".35" color="#000" fill="none" stroke="#410000" stroke-linecap="round" stroke-linejoin="round" overflow="visible"/></svg>
